X: 216
T: The Alewoman
B: O'Neill's 216
N: "With feeling"
N: "Collected by F.O'Neill"
Z: 1997 by John Chambers <jc@trillian.mit.edu>
M: 3/4
L: 1/8
K:ADor
(ef) \
| g2 (agfe) | dB e>d BA | B2 B2 cA | B2 B2 ef \
| g2 (agfe) | dB e>d BG | A2 A2 BG | A2 A2 ||
|| (B>A) \
| (GFGABc) | dB e>d BA | B2 B2 cA | B2 B2 ga \
| (bage ag) | ed e>d BG | A2 A2 BG | A2 A2 ||


